; generated by Slic3r 1.0.1 on 2014-05-06 at 19:52:34

; layer_height = .2
; perimeters = 3
; top_solid_layers = 3
; bottom_solid_layers = 3
; fill_density = 0.2
; perimeter_speed = 30
; infill_speed = 60
; travel_speed = 130
; nozzle_diameter = 0.4
; filament_diameter = 1.75
; extrusion_multiplier = 1
; perimeters extrusion width = 0.40mm
; infill extrusion width = 0.67mm
; solid infill extrusion width = 0.67mm
; top infill extrusion width = 0.67mm
; first layer extrusion width = 0.80mm

G21 ; set units to millimeters
M107
M190 S95 ; wait for bed temperature to be reached
M104 S215 ; set temperature
G28 ; home all axes
G1 Z5 F5000 ; lift nozzle
M109 S215 ; wait for temperature to be reached
G90 ; use absolute coordinates
G92 E0
M82 ; use absolute distances for extrusion
G1 F1800.000 E-1.00000
G92 E0
G1 Z0.400 F7800.000
G1 X79.950 Y79.950 F7800.000
G1 E1.00000 F1800.000
G1 X80.970 Y79.120 E1.15618 F540.000
G1 X82.130 Y78.500 E1.31239
G1 X83.390 Y78.110 E1.46904
G1 X84.700 Y77.990 E1.62527
G1 X115.300 Y77.990 E5.25949
G1 X116.610 Y78.110 E5.41572
G1 X117.870 Y78.500 E5.57237
G1 X119.030 Y79.120 E5.72858
G1 X120.050 Y79.950 E5.88476
G1 X120.880 Y80.970 E6.04094
G1 X121.500 Y82.130 E6.19715
G1 X121.890 Y83.390 E6.35380
G1 X122.010 Y84.700 E6.51003
G1 X122.010 Y115.300 E10.14425
G1 X121.890 Y116.610 E10.30048
G1 X121.500 Y117.870 E10.45713
G1 X120.880 Y119.030 E10.61334
G1 X120.050 Y120.050 E10.76952
G1 X119.030 Y120.880 E10.92570
G1 X117.870 Y121.500 E11.08191
G1 X116.610 Y121.890 E11.23856
G1 X115.300 Y122.010 E11.39479
G1 X84.700 Y122.010 E15.02901
G1 X83.390 Y121.890 E15.18524
G1 X82.130 Y121.500 E15.34189
G1 X80.970 Y120.880 E15.49810
G1 X79.950 Y120.050 E15.65428
G1 X79.120 Y119.030 E15.81046
G1 X78.500 Y117.870 E15.96667
G1 X78.110 Y116.610 E16.12332
G1 X77.990 Y115.300 E16.27955
G1 X77.990 Y84.700 E19.91377
G1 X78.110 Y83.390 E20.07000
G1 X78.500 Y82.130 E20.22665
G1 X79.120 Y80.970 E20.38286
G1 X79.882 Y80.033 E20.52632
M106 S255
M104 S210 ; set temperature
M140 S90 ; set bed temperature
G1 F1800.000 E19.52632
G92 E0
G1 Z0.600 F7800.000
G1 X84.800 Y84.800 F7800.000
G1 E1.00000 F1800.000
G1 X115.200 Y84.800 E2.01111 F680.626
G1 X115.200 Y115.200 E3.02222 F680.626
G1 X84.800 Y115.200 E4.03332
G1 X84.800 Y115.200 F7800.000
G1 X84.800 Y84.800 E5.04443 F680.626
G1 X85.820 Y85.800 F7800.000
G1 X114.200 Y85.820 E5.98836 F680.626
G1 X114.180 Y85.836 F7800.000
G1 X114.164 Y114.180 E6.93108 F680.626
G1 X85.820 Y114.164 E7.87381
G1 X85.800 Y114.180 F7800.000
G1 X85.836 Y85.820 E8.81706 F680.626
G1 X86.840 Y86.800 F7800.000
G1 X87.160 Y86.864 E8.82792 F680.626
G1 X113.200 Y86.840 E9.69401
G1 X113.160 Y86.864 F7800.000
G1 X113.136 Y113.160 E10.56862 F680.626
G1 X86.840 Y113.136 E11.44323
G1 X86.800 Y113.160 F7800.000
G1 X86.864 Y112.840 E11.45408 F680.626
G1 X86.864 Y86.840 E12.31885
G1 F1800.000 E11.31885
G92 E0
M107
M104 S0 ; turn off temperature
G28 X0  ; home X axis
M84     ; disable motors
; filament used = 29.8mm (0.1cm3)
