; filename = composition.3w
; machine = daVinciF10
; material = default
; layer_height = 0.2
; fill_density = 0.30
; shells = 2
; speed = 45
; total_layers = 196
; total_filament = 12229.54
; dimension = 132.83:104.82:39.35
; extruder = 1
G21 ; set units to millimeters
.M107
;M104 S200 ; set temperature
;M109 S200 ; wait for temperature to be reached
G90 ; use absolute coordinates
G92 E0
.M82 ; use absolute distances for extrusion
G1 Z0.350 F2700.000
G1 F1800.000 E-1.00000
G92 E0
G1 X3.000 Y179.988 F2700.000
G1 F1800.000 E1.00000
G1 X3.000 Y79.988 F270.000 E6.82052
G1 X5.000 Y79.988 E6.93693
G1 X5.000 Y179.988 E12.75746
G1 X3.050 Y179.988 E12.87038
G1 F1800.000 E11.87038
G92 E0
G1 X35.500 Y85.100 F2700.000
G1 F1800.000 E1.00000
G1 X35.500 Y84.575 F405.000 E1.03079
G1 X35.563 Y84.000 E1.06443
G1 X35.700 Y83.438 E1.09806
G1 X35.913 Y82.900 E1.13169
G1 X36.188 Y82.400 E1.16532
G1 X36.525 Y81.925 E1.19895
G1 X36.925 Y81.500 E1.23259
G1 X37.363 Y81.125 E1.26621
G1 X37.850 Y80.813 E1.29985
G1 X38.375 Y80.575 E1.33348
G1 X38.913 Y80.388 E1.36711
G1 X39.438 Y80.288 E1.39791
G1 X40.063 Y80.238 E1.43436
G1 X40.638 Y80.263 E1.46799
G1 X41.213 Y80.375 E1.50163
G1 X41.763 Y80.550 E1.53525
G1 X42.288 Y80.788 E1.56889
G1 X42.775 Y81.100 E1.60251
G1 X43.225 Y81.463 E1.63615
G1 X43.613 Y81.888 E1.66979
G1 X43.963 Y82.350 E1.70341
G1 X44.238 Y82.850 E1.73705
G1 X44.463 Y83.388 E1.77068
G1 X44.600 Y83.950 E1.80431
G1 X44.675 Y84.525 E1.83794
G1 X44.688 Y85.100 E1.87157
G1 X44.613 Y85.675 E1.90521
G1 X44.475 Y86.225 E1.93884
G1 X44.238 Y86.813 E1.97529
G1 X43.988 Y87.275 E2.00609
G1 X43.650 Y87.750 E2.03972
G1 X43.263 Y88.175 E2.07335
G1 X42.850 Y88.513 E2.10415
G1 X42.338 Y88.850 E2.14060
G1 X41.813 Y89.100 E2.17423
G1 X41.313 Y89.275 E2.20502
G1 X40.700 Y89.400 E2.24147
G1 X40.113 Y89.438 E2.27510
G1 X39.538 Y89.400 E2.30874
G1 X38.975 Y89.300 E2.34237
G1 X38.425 Y89.125 E2.37600
G1 X37.900 Y88.888 E2.40964
G1 X37.413 Y88.575 E2.44326
G1 X36.963 Y88.213 E2.47690
G1 X36.563 Y87.788 E2.51053
G1 X36.225 Y87.325 E2.54416
G1 X35.938 Y86.825 E2.57779
G1 X35.725 Y86.288 E2.61142
G1 X35.575 Y85.725 E2.64505
G1 X35.500 Y85.163 E2.67804
G1 X35.900 Y85.100 F2700.000
G1 X35.900 Y84.600 F405.000 E2.70737
G1 X35.963 Y84.075 E2.73807
G1 X36.088 Y83.563 E2.76877
G1 X36.275 Y83.075 E2.79948
G1 X36.525 Y82.613 E2.83018
G1 X36.838 Y82.175 E2.86088
G1 X37.200 Y81.788 E2.89158
G1 X37.600 Y81.450 E2.92228
G1 X38.050 Y81.163 E2.95299
G1 X38.525 Y80.938 E2.98369
G1 X39.025 Y80.775 E3.01439
G1 X39.513 Y80.675 E3.04373
G1 X40.063 Y80.638 E3.07579
G1 X40.588 Y80.663 E3.10649
G1 X41.113 Y80.763 E3.13719
G1 X41.613 Y80.925 E3.16789
G1 X42.088 Y81.138 E3.19860
G1 X42.538 Y81.425 E3.22930
G1 X42.950 Y81.763 E3.26001
G1 X43.313 Y82.138 E3.29071
G1 X43.625 Y82.563 E3.32141
G1 X43.875 Y83.025 E3.35211
G1 X44.075 Y83.513 E3.38281
G1 X44.213 Y84.025 E3.41352
G1 X44.275 Y84.550 E3.44422
G1 X44.288 Y85.075 E3.47492
G1 X44.225 Y85.600 E3.50563
G1 X44.088 Y86.113 E3.53633
G1 X43.888 Y86.625 E3.56839
G1 X43.650 Y87.063 E3.59773
G1 X43.338 Y87.500 E3.62843
G1 X42.988 Y87.875 E3.65913
G1 X42.600 Y88.200 E3.68846
G1 X42.138 Y88.500 E3.72052
G1 X41.663 Y88.738 E3.75123
G1 X41.163 Y88.900 E3.78193
G1 X40.638 Y89.000 E3.81263
G1 X40.113 Y89.038 E3.84333
G1 X39.588 Y89.013 E3.87404
G1 X39.075 Y88.913 E3.90474
G1 X38.563 Y88.750 E3.93544
G1 X38.088 Y88.525 E3.96615
G1 X37.638 Y88.250 E3.99685
G1 X37.238 Y87.913 E4.02755
G1 X36.875 Y87.538 E4.05825
G1 X36.563 Y87.113 E4.08896
G1 X36.300 Y86.650 E4.11966
G1 X36.100 Y86.163 E4.15036
G1 X35.975 Y85.650 E4.18106
G1 X35.900 Y85.163 E4.20965
G1 X35.550 Y84.925 F2700.000
G1 X39.500 Y74.413
G1 X38.875 Y74.300 F405.000 E4.24610
G1 X38.325 Y74.125 E4.27973
G1 X37.800 Y73.888 E4.31336
G1 X37.313 Y73.575 E4.34700
G1 X36.863 Y73.213 E4.38062
G1 X36.475 Y72.788 E4.41426
G1 X36.100 Y72.288 E4.45071
G1 X35.850 Y71.825 E4.48150
G1 X35.625 Y71.288 E4.51513
G1 X35.488 Y70.725 E4.54877
G1 X35.413 Y70.150 E4.58240
G1 X35.400 Y69.575 E4.61603
G1 X35.475 Y69.000 E4.64966
G1 X35.613 Y68.438 E4.68330
G1 X35.825 Y67.900 E4.71693
G1 X36.100 Y67.400 E4.75056
G1 X36.438 Y66.925 E4.78419
G1 X36.825 Y66.500 E4.81782
G1 X37.275 Y66.125 E4.85146
G1 X37.750 Y65.813 E4.88509
G1 X38.275 Y65.575 E4.91872
G1 X38.825 Y65.388 E4.95235
G1 X39.388 Y65.275 E4.98598
G1 X39.963 Y65.238 E5.01962
G1 X40.550 Y65.263 E5.05325
G1 X41.113 Y65.375 E5.08688
G1 X41.663 Y65.550 E5.12052
G1 X42.188 Y65.788 E5.15414
G1 X42.675 Y66.100 E5.18778
G1 X43.125 Y66.463 E5.22141
G1 X43.525 Y66.888 E5.25505
G1 X43.863 Y67.350 E5.28868
G1 X44.150 Y67.850 E5.32231
G1 X44.363 Y68.388 E5.35594
G1 X44.513 Y68.950 E5.38957
G1 X44.588 Y69.525 E5.42320
G1 X44.588 Y70.100 E5.45684
G1 X44.525 Y70.675 E5.49047
G1 X44.388 Y71.238 E5.52410
G1 X44.175 Y71.775 E5.55773
G1 X43.900 Y72.275 E5.59136
G1 X43.563 Y72.750 E5.62499
G1 X43.163 Y73.175 E5.65863
G1 X42.725 Y73.538 E5.69226
G1 X42.238 Y73.850 E5.72589
G1 X41.713 Y74.100 E5.75952
G1 X41.175 Y74.288 E5.79316
G1 X40.600 Y74.400 E5.82679
G1 X40.025 Y74.438 E5.86043
G1 X39.563 Y74.413 E5.88772
G1 X39.525 Y74.013 F2700.000
G1 X38.975 Y73.913 F405.000 E5.91979
G1 X38.475 Y73.750 E5.95049
G1 X38.000 Y73.525 E5.98119
G1 X37.550 Y73.250 E6.01190
G1 X37.138 Y72.913 E6.04260
G1 X36.775 Y72.538 E6.07330
G1 X36.450 Y72.088 E6.10537
G1 X36.213 Y71.650 E6.13470
G1 X36.013 Y71.163 E6.16540
G1 X35.875 Y70.650 E6.19610
G1 X35.813 Y70.125 E6.22681
G1 X35.800 Y69.600 E6.25751
G1 X35.863 Y69.075 E6.28821
G1 X36.000 Y68.563 E6.31891
G1 X36.188 Y68.075 E6.34962
G1 X36.438 Y67.613 E6.38032
G1 X36.750 Y67.175 E6.41102
G1 X37.100 Y66.788 E6.44172
G1 X37.513 Y66.450 E6.47243
G1 X37.950 Y66.163 E6.50313
G1 X38.425 Y65.938 E6.53383
G1 X38.925 Y65.775 E6.56453
G1 X39.450 Y65.675 E6.59523
G1 X39.975 Y65.638 E6.62594
G1 X40.500 Y65.663 E6.65664
G1 X41.013 Y65.763 E6.68735
G1 X41.525 Y65.925 E6.71805
G1 X42.000 Y66.138 E6.74875
G1 X42.450 Y66.425 E6.77945
G1 X42.850 Y66.763 E6.81015
G1 X43.213 Y67.138 E6.84086
G1 X43.525 Y67.563 E6.87156
G1 X43.788 Y68.025 E6.90226
G1 X43.988 Y68.513 E6.93297
G1 X44.113 Y69.025 E6.96367
G1 X44.188 Y69.550 E6.99437
G1 X44.188 Y70.075 E7.02507
G1 X44.125 Y70.600 E7.05578
G1 X44.000 Y71.113 E7.08648
G1 X43.813 Y71.600 E7.11718
G1 X43.563 Y72.063 E7.14788
G1 X43.250 Y72.500 E7.17858
G1 X42.888 Y72.875 E7.20929
G1 X42.488 Y73.225 E7.23999
G1 X42.038 Y73.500 E7.27070
G1 X41.563 Y73.738 E7.30140
G1 X41.063 Y73.900 E7.33210
G1 X40.550 Y74.000 E7.36280
G1 X40.025 Y74.038 E7.39351
G1 X39.575 Y74.013 E7.41934
G1 X39.275 Y74.325 F2700.000
G1 F1800.000 E6.41934
G92 E0
G1 X51.938 Y42.825 F2700.000
G1 F1800.000 E1.00000
G1 X51.925 Y40.263 F810.000 E1.14896
G1 X113.163 Y40.263 E4.71332
G1 X113.163 Y43.475 E4.90022
G1 X51.938 Y43.475 E8.46374
G1 X51.938 Y42.888 E8.49819
G1 X52.338 Y42.825 F2700.000
G1 X52.325 Y40.663 F567.000 E8.62379
G1 X112.763 Y40.663 E12.14147
G1 X112.763 Y43.075 E12.28181
G1 X52.338 Y43.075 E15.79885
G1 X52.338 Y42.888 E15.81010
G1 X51.988 Y42.625 F2700.000
G1 F1800.000 E14.81010
G92 E0
G1 X144.913 Y43.788 F2700.000
G1 F1800.000 E1.00000
G1 X142.588 Y43.788 F405.000 E1.13560
G1 X142.300 Y42.950 E1.18675
G1 X146.875 Y39.350 E1.52638
G1 X151.525 Y42.950 E1.86854
G1 X151.238 Y43.788 E1.91990
G1 X148.900 Y43.788 E2.05552
G1 X148.900 Y48.763 E2.34517
G1 X144.913 Y48.763 E2.57764
G1 X144.913 Y43.850 E2.86381
G1 X145.313 Y43.388 F2700.000
G1 X142.863 Y43.388 F405.000 E3.00611
G1 X142.763 Y43.088 E3.02411
G1 X146.875 Y39.850 E3.32897
G1 X151.050 Y43.088 E3.63629
G1 X150.950 Y43.388 E3.65438
G1 X148.500 Y43.388 E3.79665
G1 X148.500 Y48.363 E4.08631
G1 X145.313 Y48.363 E4.27221
G1 X145.313 Y43.450 E4.55838
G1 X144.963 Y43.588 F2700.000
G1 F1800.000 E3.55838
G92 E0
G1 X146.913 Y50.413 F2700.000
G1 F1800.000 E1.00000
G1 X152.788 Y56.288 F405.000 E1.48380
G1 X146.913 Y62.163 E1.96761
G1 X141.038 Y56.288 E2.45141
G1 X146.863 Y50.450 E2.93172
G1 X146.913 Y50.975 F2700.000
G1 X152.225 Y56.288 F405.000 E3.36896
G1 X146.913 Y61.600 E3.80620
G1 X141.600 Y56.288 E4.24343
G1 X146.863 Y51.025 E4.67718
G1 X147.188 Y50.700 F2700.000
G1 F1800.000 E3.67718
G92 E0
G1 X120.075 Y59.700 F2700.000
G1 F1800.000 E1.00000
G1 X120.250 Y61.050 F405.000 E1.07894
G1 X120.075 Y62.388 E1.15788
G1 X119.550 Y63.650 E1.23681
G1 X118.725 Y64.725 E1.31576
G1 X117.650 Y65.550 E1.39469
G1 X116.400 Y66.063 E1.47363
G1 X115.050 Y66.238 E1.55257
G1 X113.700 Y66.063 E1.63151
G1 X112.450 Y65.550 E1.71045
G1 X111.375 Y64.725 E1.78939
G1 X110.550 Y63.650 E1.86832
G1 X110.038 Y62.388 E1.94726
G1 X109.850 Y61.050 E2.02620
G1 X110.038 Y59.700 E2.10514
G1 X110.550 Y58.450 E2.18408
G1 X111.375 Y57.375 E2.26302
G1 X112.450 Y56.550 E2.34196
G1 X113.700 Y56.025 E2.42089
G1 X115.050 Y55.850 E2.49983
G1 X116.263 Y56.013 E2.57103
G1 X116.400 Y56.025 E2.57877
G1 X117.650 Y56.550 E2.65771
G1 X118.725 Y57.375 E2.73665
G1 X119.550 Y58.450 E2.81559
G1 X120.050 Y59.650 E2.89104
G1 X119.675 Y59.813 F2700.000
G1 X119.838 Y61.050 F405.000 E2.96384
G1 X119.675 Y62.288 E3.03665
G1 X119.200 Y63.438 E3.10946
G1 X118.438 Y64.438 E3.18227
G1 X117.450 Y65.200 E3.25508
G1 X116.288 Y65.675 E3.32789
G1 X115.050 Y65.838 E3.40070
G1 X113.813 Y65.675 E3.47351
G1 X112.650 Y65.200 E3.54631
G1 X111.663 Y64.438 E3.61912
G1 X110.900 Y63.438 E3.69193
G1 X110.425 Y62.288 E3.76474
G1 X110.263 Y61.050 E3.83755
G1 X110.425 Y59.813 E3.91035
G1 X110.900 Y58.650 E3.98316
G1 X111.663 Y57.663 E4.05597
G1 X112.650 Y56.900 E4.12878
G1 X113.813 Y56.425 E4.20159
G1 X115.050 Y56.250 E4.27440
G1 X116.213 Y56.413 E4.34253
G1 X116.288 Y56.425 E4.34720
G1 X117.450 Y56.900 E4.42001
G1 X118.438 Y57.663 E4.49282
G1 X119.200 Y58.650 E4.56563
G1 X119.663 Y59.750 E4.63495
G1 X120.063 Y59.925 F2700.000
G1 F1800.000 E3.63495
G92 E0
G1 X112.963 Y75.688 F2700.000
G1 F1800.000 E1.00000
G1 X112.988 Y78.338 F567.000 E1.15397
G1 X52.550 Y78.713 E4.67154
G1 X52.538 Y75.813 E4.84033
G1 X112.963 Y75.438 E8.35790
G1 X112.963 Y75.625 E8.36923
G1 X113.313 Y75