; generated by Slic3r 1.0.1 on 2014-05-06 at 20:09:59

; layer_height = 0.2
; perimeters = 3
; top_solid_layers = 3
; bottom_solid_layers = 3
; fill_density = 0.2
; perimeter_speed = 30
; infill_speed = 60
; travel_speed = 130
; nozzle_diameter = 0.4
; filament_diameter = 1.75
; extrusion_multiplier = .99
; perimeters extrusion width = 0.40mm
; infill extrusion width = 0.67mm
; solid infill extrusion width = 0.67mm
; top infill extrusion width = 0.67mm
; first layer extrusion width = 0.80mm

G21 ; set units to millimeters
M107
M190 S95 ; wait for bed temperature to be reached
M104 S215 ; set temperature
G28 ; home all axes
G1 Z5 F5000 ; lift nozzle
M109 S215 ; wait for temperature to be reached
G90 ; use absolute coordinates
G92 E0
M82 ; use absolute distances for extrusion
G1 F1800.000 E-1.00000
G92 E0
G1 Z0.400 F7800.000
G1 X46.270 Y86.920 F7800.000
G1 E1.00000 F1800.000
G1 X47.430 Y86.300 E1.15465 F540.000
G1 X48.690 Y85.910 E1.30973
G1 X50.000 Y85.790 E1.46440
G1 X150.000 Y85.790 E13.22215
G1 X151.310 Y85.910 E13.37683
G1 X152.570 Y86.300 E13.53191
G1 X153.730 Y86.920 E13.68656
G1 X154.750 Y87.750 E13.84117
G1 X155.580 Y88.770 E13.99579
G1 X156.200 Y89.930 E14.15044
G1 X156.590 Y91.190 E14.30552
G1 X156.710 Y92.500 E14.46019
G1 X156.710 Y107.500 E16.22386
G1 X156.590 Y108.810 E16.37853
G1 X156.200 Y110.070 E16.53361
G1 X155.580 Y111.230 E16.68826
G1 X154.750 Y112.250 E16.84288
G1 X153.730 Y113.080 E16.99750
G1 X152.570 Y113.700 E17.15214
G1 X151.310 Y114.090 E17.30723
G1 X150.000 Y114.210 E17.46190
G1 X50.000 Y114.210 E29.21965
G1 X48.690 Y114.090 E29.37432
G1 X47.430 Y113.700 E29.52940
G1 X46.270 Y113.080 E29.68405
G1 X45.250 Y112.250 E29.83867
G1 X44.420 Y111.230 E29.99329
G1 X43.800 Y110.070 E30.14794
G1 X43.410 Y108.810 E30.30302
G1 X43.290 Y107.500 E30.45769
G1 X43.290 Y92.500 E32.22135
G1 X43.410 Y91.190 E32.37602
G1 X43.800 Y89.930 E32.53111
G1 X44.420 Y88.770 E32.68576
G1 X45.250 Y87.750 E32.84037
G1 X46.187 Y86.988 E32.98240
G1 F1800.000 E31.98240
G92 E0
G1 X51.828 Y94.328 F7800.000
G1 E1.00000 F1800.000
G1 X148.172 Y94.328 E12.32781 F540.000
G1 X148.172 Y105.672 E13.66154
G1 X51.828 Y105.672 E24.98935
G1 X51.828 Y94.435 E26.31048
G1 X51.114 Y93.614 F7800.000
G1 X148.886 Y93.614 E37.80623 F540.000
G1 X148.886 Y106.386 E39.30789
G1 X51.114 Y106.386 E50.80365
G1 X51.114 Y93.721 E52.29271
G1 X50.400 Y92.900 F7800.000
G1 X149.600 Y92.900 E63.95640 F378.000
G1 X149.600 Y107.100 E65.62600
G1 X50.400 Y107.100 E77.28969
G1 X50.400 Y93.007 E78.94670
G1 X51.018 Y93.257 F7800.000
G1 X52.356 Y105.164 F7800.000
G1 X52.336 Y105.144 E78.95004 F1080.000
G1 X52.336 Y104.128 E79.07010
G1 X53.372 Y105.164 E79.24324
G1 X54.387 Y105.164 E79.36330
G1 X52.336 Y103.113 E79.70623
G1 X52.336 Y102.097 E79.82630
G1 X55.403 Y105.164 E80.33902
G1 X56.418 Y105.164 E80.45908
G1 X52.336 Y101.082 E81.14160
G1 X52.336 Y100.066 E81.26166
G1 X57.434 Y105.164 E82.11397
G1 X58.449 Y105.164 E82.23403
G1 X52.336 Y99.051 E83.25613
G1 X52.336 Y98.035 E83.37620
G1 X59.465 Y105.164 E84.56809
G1 X60.480 Y105.164 E84.68815
G1 X52.336 Y97.020 E86.04984
G1 X52.336 Y96.004 E86.16990
G1 X61.496 Y105.164 E87.70139
G1 X62.511 Y105.164 E87.82145
G1 X52.336 Y94.989 E89.52272
G1 X53.199 Y94.836 E89.62634
G1 X63.527 Y105.164 E91.35311
G1 X64.543 Y105.164 E91.47317
G1 X54.215 Y94.836 E93.19995
G1 X55.230 Y94.836 E93.32001
G1 X65.558 Y105.164 E95.04678
G1 X66.574 Y105.164 E95.16685
G1 X56.246 Y94.836 E96.89362
G1 X57.261 Y94.836 E97.01368
G1 X67.589 Y105.164 E98.74046
G1 X68.605 Y105.164 E98.86052
G1 X58.277 Y94.836 E100.58729
G1 X59.292 Y94.836 E100.70735
G1 X69.620 Y105.164 E102.43413
G1 X70.636 Y105.164 E102.55419
G1 X60.308 Y94.836 E104.28096
G1 X61.323 Y94.836 E104.40103
G1 X71.651 Y105.164 E106.12780
G1 X72.667 Y105.164 E106.24786
G1 X62.339 Y94.836 E107.97464
G1 X63.354 Y94.836 E108.09470
G1 X73.682 Y105.164 E109.82147
G1 X74.698 Y105.164 E109.94153
G1 X64.370 Y94.836 E111.66831
G1 X65.386 Y94.836 E111.78837
G1 X75.713 Y105.164 E113.51514
G1 X76.729 Y105.164 E113.63521
G1 X66.401 Y94.836 E115.36198
G1 X67.417 Y94.836 E115.48204
G1 X77.744 Y105.164 E117.20882
G1 X78.760 Y105.164 E117.32888
G1 X68.432 Y94.836 E119.05565
G1 X69.448 Y94.836 E119.17571
G1 X79.776 Y105.164 E120.90249
G1 X80.791 Y105.164 E121.02255
G1 X70.463 Y94.836 E122.74932
G1 X71.479 Y94.836 E122.86939
G1 X81.807 Y105.164 E124.59616
G1 X82.822 Y105.164 E124.71622
G1 X72.494 Y94.836 E126.44300
G1 X73.510 Y94.836 E126.56306
G1 X83.838 Y105.164 E128.28983
G1 X84.853 Y105.164 E128.40989
G1 X74.525 Y94.836 E130.13667
G1 X75.541 Y94.836 E130.25673
G1 X85.869 Y105.164 E131.98350
G1 X86.884 Y105.164 E132.10357
G1 X76.556 Y94.836 E133.83034
G1 X77.572 Y94.836 E133.95040
G1 X87.900 Y105.164 E135.67718
G1 X88.915 Y105.164 E135.79724
G1 X78.587 Y94.836 E137.52401
G1 X79.603 Y94.836 E137.64407
G1 X89.931 Y105.164 E139.37085
G1 X90.946 Y105.164 E139.49091
G1 X80.619 Y94.836 E141.21768
G1 X81.634 Y94.836 E141.33775
G1 X91.962 Y105.164 E143.06452
G1 X92.978 Y105.164 E143.18458
G1 X82.650 Y94.836 E144.91136
G1 X83.665 Y94.836 E145.03142
G1 X93.993 Y105.164 E146.75819
G1 X95.009 Y105.164 E146.87825
G1 X84.681 Y94.836 E148.60503
G1 X85.696 Y94.836 E148.72509
G1 X96.024 Y105.164 E150.45186
G1 X97.040 Y105.164 E150.57193
G1 X86.712 Y94.836 E152.29870
G1 X87.727 Y94.836 E152.41876
G1 X98.055 Y105.164 E154.14554
G1 X99.071 Y105.164 E154.26560
G1 X88.743 Y94.836 E155.99237
G1 X89.758 Y94.836 E156.11244
G1 X100.086 Y105.164 E157.83921
G1 X101.102 Y105.164 E157.95927
G1 X90.774 Y94.836 E159.68605
G1 X91.789 Y94.836 E159.80611
G1 X102.117 Y105.164 E161.53288
G1 X103.133 Y105.164 E161.65294
G1 X92.805 Y94.836 E163.37972
G1 X93.821 Y94.836 E163.49978
G1 X104.148 Y105.164 E165.22655
G1 X105.164 Y105.164 E165.34662
G1 X94.836 Y94.836 E167.07339
G1 X95.852 Y94.836 E167.19345
G1 X106.179 Y105.164 E168.92023
G1 X107.195 Y105.164 E169.04029
G1 X96.867 Y94.836 E170.76706
G1 X97.883 Y94.836 E170.88712
G1 X108.211 Y105.164 E172.61390
G1 X109.226 Y105.164 E172.73396
G1 X98.898 Y94.836 E174.46073
G1 X99.914 Y94.836 E174.58080
G1 X110.242 Y105.164 E176.30757
G1 X111.257 Y105.164 E176.42763
G1 X100.929 Y94.836 E178.15441
G1 X101.945 Y94.836 E178.27447
G1 X112.273 Y105.164 E180.00124
G1 X113.288 Y105.164 E180.12130
G1 X102.960 Y94.836 E181.84808
G1 X103.976 Y94.836 E181.96814
G1 X114.304 Y105.164 E183.69491
G1 X115.319 Y105.164 E183.81498
G1 X104.991 Y94.836 E185.54175
G1 X106.007 Y94.836 E185.66181
G1 X116.335 Y105.164 E187.38859
G1 X117.350 Y105.164 E187.50865
G1 X107.023 Y94.836 E189.23542
G1 X108.038 Y94.836 E189.35548
G1 X118.366 Y105.164 E191.08226
G1 X119.381 Y105.164 E191.20232
G1 X109.054 Y94.836 E192.92909
G1 X110.069 Y94.836 E193.04916
G1 X120.397 Y105.164 E194.77593
G1 X121.413 Y105.164 E194.89599
G1 X111.085 Y94.836 E196.62277
G1 X112.100 Y94.836 E196.74283
G1 X122.428 Y105.164 E198.46960
G1 X123.444 Y105.164 E198.58966
G1 X113.116 Y94.836 E200.31644
G1 X114.131 Y94.836 E200.43650
G1 X124.459 Y105.164 E202.16328
G1 X125.475 Y105.164 E202.28334
G1 X115.147 Y94.836 E204.01011
G1 X116.162 Y94.836 E204.13017
G1 X126.490 Y105.164 E205.85695
G1 X127.506 Y105.164 E205.97701
G1 X117.178 Y94.836 E207.70378
G1 X118.193 Y94.836 E207.82385
G1 X128.521 Y105.164 E209.55062
G1 X129.537 Y105.164 E209.67068
G1 X119.209 Y94.836 E211.39746
G1 X120.224 Y94.836 E211.51752
G1 X130.552 Y105.164 E213.24429
G1 X131.568 Y105.164 E213.36435
G1 X121.240 Y94.836 E215.09113
G1 X122.256 Y94.836 E215.21119
G1 X132.583 Y105.164 E216.93796
G1 X133.599 Y105.164 E217.05803
G1 X123.271 Y94.836 E218.78480
G1 X124.287 Y94.836 E218.90486
G1 X134.615 Y105.164 E220.63164
G1 X135.630 Y105.164 E220.75170
G1 X125.302 Y94.836 E222.47847
G1 X126.318 Y94.836 E222.59853
G1 X136.646 Y105.164 E224.32531
G1 X137.661 Y105.164 E224.44537
G1 X127.333 Y94.836 E226.17215
G1 X128.349 Y94.836 E226.29221
G1 X138.677 Y105.164 E228.01898
G1 X139.692 Y105.164 E228.13904
G1 X129.364 Y94.836 E229.86582
G1 X130.380 Y94.836 E229.98588
G1 X140.708 Y105.164 E231.71265
G1 X141.723 Y105.164 E231.83272
G1 X131.395 Y94.836 E233.55949
G1 X132.411 Y94.836 E233.67955
G1 X142.739 Y105.164 E235.40633
G1 X143.754 Y105.164 E235.52639
G1 X133.426 Y94.836 E237.25316
G1 X134.442 Y94.836 E237.37322
G1 X144.770 Y105.164 E239.10000
G1 X145.785 Y105.164 E239.22006
G1 X135.458 Y94.836 E240.94683
G1 X136.473 Y94.836 E241.06690
G1 X146.801 Y105.164 E242.79367
G1 X147.664 Y105.011 E242.89728
G1 X137.489 Y94.836 E244.59855
G1 X138.504 Y94.836 E244.71861
G1 X147.664 Y103.996 E246.25009
G1 X147.664 Y102.980 E246.37015
G1 X139.520 Y94.836 E247.73183
G1 X140.535 Y94.836 E247.85189
G1 X147.664 Y101.965 E249.04378
G1 X147.664 Y100.949 E249.16384
G1 X141.551 Y94.836 E250.18594
G1 X142.566 Y94.836 E250.30600
G1 X147.664 Y99.934 E251.15831
G1 X147.664 Y98.918 E251.27837
G1 X143.582 Y94.836 E251.96088
G1 X144.597 Y94.836 E252.08094
G1 X147.664 Y97.903 E252.59366
G1 X147.664 Y96.887 E252.71372
G1 X145.613 Y94.836 E253.05664
G1 X146.628 Y94.836 E253.17670
G1 X147.664 Y95.872 E253.34983
G1 X147.664 Y94.856 E253.46990
G1 X147.644 Y94.836 E253.47323
M104 S210 ; set temperature
M140 S90 ; set bed temperature
G1 F1800.000 E252.47323
G92 E0
G1 Z0.600 F7800.000
G1 X149.000 Y93.500 F7800.000
G1 E1.00000 F1800.000
G1 X149.000 Y106.500 E1.42806 F1800
G1 X51.000 Y106.500 E4.65496
G1 X51.000 Y93.500 E5.08301
G1 X148.940 Y93.500 E8.30794
G1 X149.400 Y93.100 F7800.000
G1 X149.400 Y106.900 E8.76234 F1800
G1 X50.600 Y106.900 E12.01558
G1 X50.600 Y93.100 E12.46998
G1 X149.340 Y93.100 E15.72124
G1 X149.800 Y92.700 F7800.000
G1 X149.800 Y107.300 E16.20198 F1260
G1 X50.200 Y107.300 E19.48157
G1 X50.200 Y92.700 E19.96231
G1 X149.740 Y92.700 E23.23991
G1 X149.600 Y93.046 F7800.000
G1 F1800.000 E22.23991
G92 E0
G1 X148.669 Y106.149 F7800.000
G1 E1.00000 F1800.000
G1 X148.649 Y106.169 E1.00147 F3000
G1 X147.757 Y106.169 E1.04771
G1 X148.669 Y105.257 E1.11458
G1 X148.669 Y104.366 E1.16083
G1 X146.866 Y106.169 E1.29310
G1 X145.975 Y106.169 E1.33934
G1 X148.669 Y103.475 E1.53701
G1 X148.669 Y102.583 E1.58326
G1 X145.083 Y106.169 E1.84633
G1 X144.192 Y106.169 E1.89258
G1 X148.669 Y101.692 E2.22105
G1 X148.669 Y100.801 E2.26729
G1 X143.301 Y106.169 E2.66117
G1 X142.409 Y106.169 E2.70741
G1 X148.669 Y99.909 E3.16669
G1 X148.669 Y99.018 E3.21293
G1 X141.518 Y106.169 E3.73761
G1 X140.627 Y106.169 E3.78385
G1 X148.669 Y98.127 E4.37393
G1 X148.669 Y97.235 E4.42018
G1 X139.735 Y106.169 E5.07565
G1 X138.844 Y106.169 E5.12190
G1 X148.669 Y96.344 E5.84278
G1 X148.669 Y95.453 E5.88902
G1 X137.953 Y106.169 E6.67530
G1 X137.061 Y106.169 E6.72155
G1 X148.669 Y94.561 E7.57323
G1 X148.507 Y93.831 E7.61202
G1 X136.170 Y106.169 E8.51725
G1 X135.279 Y106.169 E8.56350
G1 X147.616 Y93.831 E9.46874
G1 X146.725 Y93.831 E9.51498
G1 X134.387 Y106.169 E10.42022
G1 X133.496 Y106.169 E10.46647
G1 X145.833 Y93.831 E11.37170
G1 X144.942 Y93.831 E11.41795
G1 X132.605 Y106.169 E12.32319
G1 X131.713 Y106.169 E12.36943
G1 X144.051 Y93.831 E13.27467
G1 X143.159 Y93.831 E13.32092
G1 X130.822 Y106.169 E14.22615
G1 X129.931 Y106.169 E14.27240
G1 X142.268 Y93.831 E15.17764
G1 X141.377 Y93.831 E15.22388
G1 X129.039 Y106.169 E16.12912
G1 X128.148 Y106.169 E16.17536
G1 X140.485 Y93.831 E17.08060
G1 X139.594 Y93.831 E17.12685
G1 X127.257 Y106.169 E18.03209
G1 X126.365 Y106.169 E18.07833
G1 X138.702 Y93.831 E18.98357
G1 X137.811 Y93.831 E19.02981
G1 X125.474 Y106.169 E19.93505
G1 X124.583 Y106.169 E19.98130
G1 X136.920 Y93.831 E20.88654
G1 X136.028 Y93.831 E20.93278
G1 X123.691 Y106.169 E21.83802
G1 X122.800 Y106.169 E21.88426
G1 X135.137 Y93.831 E22.78950
G1 X134.246 Y93.831 E22.83575
G1 X121.908 Y106.169 E23.74099
G1 X121.017 Y106.169 E23.78723
G1 X133.354 Y93.831 E24.69247
G1 X132.463 Y93.831 E24.73871
G1 X120.126 Y106.169 E25.64395
G1 X119.234 Y106.169 E25.69020
G1 X131.572 Y93.831 E26.59544
G1 X130.680 Y93.831 E26.64168
G1 X118.343 Y106.169 E27.54692
G1 X117.452 Y106.169 E27.59316
G1 X129.789 Y93.831 E28.49840
G1 X128.898 Y93.831 E28.54465
G1 X116.560 Y106.169 E29.44988
G1 X115.669 Y106.169 E29.49613
G1 X128.006 Y93.831 E30.40137
G1 X127.115 Y93.831 E30.44761
G1 X114.778 Y106.169 E31.35285
G1 X113.886 Y106.169 E31.39910
G1 X126.224 Y93.831 E32.30434
G1 X125.332 Y93.831 E32.35058
G1 X112.995 Y106.169 E33.25582
G1 X112.104 Y106.169 E33.30207
G1 X124.441 Y93.831 E34.20730
G1 X123.550 Y93.831 E34.25355
G1 X111.212 Y106.169 E35.15879
G1 X110.321 Y106.169 E35.20503
G1 X122.658 Y93.831 E36.11027
G1 X121.767 Y93.831 E36.15652
G1 X109.430 Y106.169 E37.06176
G1 X108.538 Y106.169 E37.10800
G1 X120.876 Y93.831 E38.01324
G1 X119.984 Y93.831 E38.05948
G1 X107.647 Y106.169 E38.96472
G1 X106.756 Y106.169 E39.01097
G1 X119.093 Y93.831 E39.91620
G1 X118.202 Y93.831 E39.96245
G1 X105.864 Y106.169 E40.86769
G1 X104.973 Y106.169 E40.91393
G1 X117.310 Y93.831 E41.81917
G1 X116.419 Y93.831 E41.86542
G1 X104.082 Y106.169 E42.77065
G1 X103.190 Y106.169 E42.81690
G1 X115.528 Y93.831 E43.72214
G1 X114.636 Y93.831 E43.76838
G1 X102.299 Y106.169 E44.67362
G1 X101.408 Y106.169 E44.71987
G1 X113.745 Y93.831 E45.62510
G1 X112.854 Y93.831 E45.67135
G1 X100.516 Y106.169 E46.57659
G1 X99.625 Y106.169 E46.62283
G1 X111.962 Y93.831 E47.52807
G1 X111.071 Y93.831 E47.57432
G1 X98.734 Y106.169 E48.47956
G1 X97.842 Y106.169 E48.52580
G1 X110.180 Y93.831 E49.43104
G1 X109.288 Y93.831 E49.47728
G1 X96.951 Y106.169 E50.38252
G1 X96.060 Y106.169 E50.42877
G1 X108.397 Y93.831 E51.33401
G1 X107.506 Y93.831 E51.38025
G1 X95.168 Y106.169 E52.28549
G1 X94.277 Y106.169 E52.33173
G1 X106.614 Y93.831 E53.23697
G1 X105.723 Y93.831 E53.28322
G1 X93.386 Y106.169 E54.18846
G1 X92.494 Y106.169 E54.23470
G1 X104.832 Y93.831 E55.13994
G1 X103.940 Y93.831 E55.18618
G1 X91.603 Y106.169 E56.09142
G1 X90.712 Y106.169 E56.13767
G1 X103.049 Y93.831 E57.04291
G1 X102.158 Y93.831 E57.08915
G1 X89.820 Y106.169 E57.99439
G1 X88.929 Y106.169 E58.04064
G1 X101.266 Y93.831 E58.94587
G1 X100.375 Y93.831 E58.99212
G1 X88.038 Y106.169 E59.89736
G1 X87.146 Y106.169 E59.94360
G1 X99.484 Y93.831 E60.84884
G1 X98.592 Y93.831 E60.89508
G1 X86.255 Y106.169 E61.80032
G1 X85.364 Y106.169 E61.84657
G1 X97.701 Y93.831 E62.75181
G1 X96.810 Y93.831 E62.79805
G1 X84.472 Y106.169 E63.70329
G1 X83.581 Y106.169 E63.74954
G1 X95.918 Y93.831 E64.65477
G1 X95.027 Y93.831 E64.70102
G1 X82.690 Y106.169 E65.60626
G1 X81.798 Y106.169 E65.65250
G1 X94.136 Y93.831 E66.55774
G1 X93.244 Y93.831 E66.60399
G1 X80.907 Y106.169 E67.50922
G1 X80.016 Y106.169 E67.55547
G1 X92.353 Y93.831 E68.46071
G1 X91.462 Y93.831 E68.50695
G1 X79.124 Y106.169 E69.41219
G1 X78.233 Y106.169 E69.45844
G1 X90.570 Y93.831 E70.36368
G1 X89.679 Y93.831 E70.40992
G1 X77.342 Y106.169 E71.31516
G1 X76.450 Y106.169 E71.36140
G1 X88.787 Y93.831 E72.26664
G1 X87.896 Y93.831 E72.31289
G1 X75.559 Y106.169 E73.21812
G1 X74.668 Y106.169 E73.26437
G1 X87.005 Y93.831 E74.16961
G1 X86.113 Y93.831 E74.21585
G1 X73.776 Y106.169 E75.12109
G1 X72.885 Y106.169 E75.16734
G1 X85.222 Y93.831 E76.07258
G1 X84.331 Y93.831 E76.11882
G1 X71.993 Y106.169 E77.02406
G1 X71.102 Y106.169 E77.07030
G1 X83.439 Y93.831 E77.97554
G1 X82.548 Y93.831 E78.02179
G1 X70.211 Y106.169 E78.92703
G1 X69.319 Y106.169 E78.97327
G1 X81.657 Y93.831 E79.87851
G1 X80.765 Y93.831 E79.92475
G1 X68.428 Y106.169 E80.82999
G1 X67.537 Y106.169 E80.87624
G1 X79.874 Y93.831 E81.78147
G1 X78.983 Y93.831 E81.82772
G1 X66.645 Y106.169 E82.73296
G1 X65.754 Y106.169 E82.77920
G1 X78.091 Y93.831 E83.68444
G1 X77.200 Y93.831 E83.73069
G1 X64.863 Y106.169 E84.63593
G1 X63.971 Y106.169 E84.68217
G1 X76.309 Y93.831 E85.58741
G1 X75.417 Y93.831 E85.63365
G1 X63.080 Y106.169 E86.53889
G1 X62.189 Y106.169 E86.58514
G1 X74.526 Y93.831 E87.49037
G1 X73.635 Y93.831 E87.53662
G1 X61.297 Y106.169 E88.44186
G1 X60.406 Y106.169 E88.48810
G1 X72.743 Y93.831 E89.39334
G1 X71.852 Y93.831 E89.43959
G1 X59.515 Y106.169 E90.34482
G1 X58.623 Y106.169 E90.39107
G1 X70.961 Y93.831 E91.29631
G1 X70.069 Y93.831 E91.34255
G1 X57.732 Y106.169 E92.24779
G1 X56.841 Y106.169 E92.29404
G1 X69.178 Y93.831 E93.19927
G1 X68.287 Y93.831 E93.24552
G1 X55.949 Y106.169 E94.15076
