; generated by Slic3r 1.0.0 on 2014-04-21 at 23:02:41

; layer_height = 0.2
; perimeters = 3
; top_solid_layers = 3
; bottom_solid_layers = 3
; fill_density = 0.4
; perimeter_speed = 30
; infill_speed = 60
; travel_speed = 130
; nozzle_diameter = 0.4
; filament_diameter = 1.75
; extrusion_multiplier = 1
; perimeters extrusion width = 0.40mm
; infill extrusion width = 0.67mm
; solid infill extrusion width = 0.67mm
; top infill extrusion width = 0.67mm
; first layer extrusion width = 0.80mm

G21 ; set units to millimeters
M107
M190 S95 ; wait for bed temperature to be reached
M104 S215 ; set temperature
G28 ; home all axes
G1 Z5 F5000 ; lift nozzle

M109 S215 ; wait for temperature to be reached
G90 ; use absolute coordinates
G92 E0
M82 ; use absolute distances for extrusion
G1 F1800.000 E-1.00000
G92 E0
G1 Z0.400 F7800.000
G1 X75.250 Y75.250 F7800.000
G1 E1.00000 F1800.000
G1 X76.270 Y74.420 E1.15618 F540.000
G1 X77.430 Y73.800 E1.31239
G1 X78.690 Y73.410 E1.46904
G1 X80.000 Y73.290 E1.62527
G1 X120.000 Y73.290 E6.37588
G1 X121.310 Y73.410 E6.53211
G1 X122.570 Y73.800 E6.68876
G1 X123.730 Y74.420 E6.84497
G1 X124.750 Y75.250 E7.00115
G1 X125.580 Y76.270 E7.15733
G1 X126.200 Y77.430 E7.31354
G1 X126.590 Y78.690 E7.47019
G1 X126.710 Y80.000 E7.62643
G1 X126.710 Y90.000 E8.81408
G1 X126.590 Y91.310 E8.97031
G1 X126.200 Y92.570 E9.12696
G1 X125.580 Y93.730 E9.28317
G1 X124.750 Y94.750 E9.43935
G1 X94.750 Y124.750 E14.47813
G1 X93.730 Y125.580 E14.63431
G1 X92.570 Y126.200 E14.79052
G1 X91.310 Y126.590 E14.94717
G1 X90.000 Y126.710 E15.10340
G1 X80.000 Y126.710 E16.29105
G1 X78.690 Y126.590 E16.44729
G1 X77.430 Y126.200 E16.60394
G1 X76.270 Y125.580 E16.76015
G1 X75.250 Y124.750 E16.91633
G1 X74.420 Y123.730 E17.07251
G1 X73.800 Y122.570 E17.22872
G1 X73.410 Y121.310 E17.38537
G1 X73.290 Y120.000 E17.54160
G1 X73.290 Y80.000 E22.29221
G1 X73.410 Y78.690 E22.44844
G1 X73.800 Y77.430 E22.60509
G1 X74.420 Y76.270 E22.76130
G1 X75.182 Y75.333 E22.90476
G1 F1800.000 E21.90476
G92 E0
G1 X81.828 Y81.828 F7800.000
G1 E1.00000 F1800.000
G1 X118.172 Y81.828 E5.31633 F540.000
G1 X118.172 Y88.172 E6.06970
G1 X108.172 Y88.172 E7.25735
G1 X108.172 Y98.172 E8.44500
G1 X98.172 Y98.172 E9.63265
G1 X98.172 Y108.172 E10.82030
G1 X88.172 Y108.172 E12.00795
G1 X88.172 Y118.172 E13.19561
G1 X81.828 Y118.172 E13.94898
G1 X81.828 Y81.935 E18.25258
G1 X81.114 Y81.114 F7800.000
G1 X118.886 Y81.114 E22.73854 F540.000
G1 X118.886 Y88.886 E23.66154
G1 X108.886 Y88.886 E24.84920
G1 X108.886 Y98.886 E26.03685
G1 X98.886 Y98.886 E27.22450
G1 X98.886 Y108.886 E28.41215
G1 X88.886 Y108.886 E29.59980
G1 X88.886 Y118.886 E30.78745
G1 X81.114 Y118.886 E31.71046
G1 X81.114 Y81.221 E36.18370
G1 X80.400 Y80.400 F7800.000
G1 X119.600 Y80.400 E40.83929 F378.000
G1 X119.600 Y89.600 E41.93193
G1 X109.600 Y89.600 E43.11958
G1 X109.600 Y99.600 E44.30723
G1 X99.600 Y99.600 E45.49489
G1 X99.600 Y109.600 E46.68254
G1 X89.600 Y109.600 E47.87019
G1 X89.600 Y119.600 E49.05784
G1 X80.400 Y119.600 E50.15048
G1 X80.400 Y80.507 E54.79335
G1 X81.018 Y80.757 F7800.000
G1 X117.664 Y82.356 F7800.000
G1 X117.644 Y82.336 E54.79675 F1080.000
G1 X116.621 Y82.336 E54.91992
G1 X117.664 Y83.379 E55.09750
G1 X117.664 Y84.403 E55.22066
G1 X115.597 Y82.336 E55.57242
G1 X114.574 Y82.336 E55.69558
G1 X117.664 Y85.426 E56.22153
G1 X117.664 Y86.450 E56.34469
G1 X113.550 Y82.336 E57.04481
G1 X112.527 Y82.336 E57.16797
G1 X117.664 Y87.473 E58.04228
G1 X116.831 Y87.664 E58.14507
G1 X111.503 Y82.336 E59.05185
G1 X110.480 Y82.336 E59.17501
G1 X115.808 Y87.664 E60.08179
G1 X114.784 Y87.664 E60.20496
G1 X109.457 Y82.336 E61.11173
G1 X108.433 Y82.336 E61.23490
G1 X113.761 Y87.664 E62.14167
G1 X112.738 Y87.664 E62.26484
G1 X107.410 Y82.336 E63.17161
G1 X106.386 Y82.336 E63.29478
G1 X111.714 Y87.664 E64.20156
G1 X110.691 Y87.664 E64.32472
G1 X105.363 Y82.336 E65.23150
G1 X104.340 Y82.336 E65.35466
G1 X109.667 Y87.664 E66.26144
G1 X108.644 Y87.664 E66.38460
G1 X103.316 Y82.336 E67.29138
G1 X102.293 Y82.336 E67.41454
G1 X107.664 Y87.707 E68.32870
G1 X107.664 Y88.731 E68.45186
G1 X101.269 Y82.336 E69.54020
G1 X100.246 Y82.336 E69.66336
G1 X107.664 Y89.754 E70.92588
G1 X107.664 Y90.778 E71.04904
G1 X99.222 Y82.336 E72.48574
G1 X98.199 Y82.336 E72.60891
G1 X107.664 Y91.801 E74.21978
G1 X107.664 Y92.824 E74.34295
G1 X97.176 Y82.336 E76.12801
G1 X96.152 Y82.336 E76.25117
G1 X107.664 Y93.848 E78.21041
G1 X107.664 Y94.871 E78.33357
G1 X95.129 Y82.336 E80.46699
G1 X94.105 Y82.336 E80.59015
G1 X107.664 Y95.895 E82.89775
G1 X107.664 Y96.918 E83.02092
G1 X93.082 Y82.336 E85.50270
G1 X92.059 Y82.336 E85.62586
G1 X107.386 Y97.664 E88.23459
G1 X106.363 Y97.664 E88.35775
G1 X91.035 Y82.336 E90.96648
G1 X90.012 Y82.336 E91.08964
G1 X105.340 Y97.664 E93.69837
G1 X104.316 Y97.664 E93.82153
G1 X88.988 Y82.336 E96.43026
G1 X87.965 Y82.336 E96.55342
G1 X103.293 Y97.664 E99.16215
G1 X102.269 Y97.664 E99.28531
G1 X86.941 Y82.336 E101.89404
G1 X85.918 Y82.336 E102.01720
G1 X101.246 Y97.664 E104.62593
G1 X100.222 Y97.664 E104.74909
G1 X84.895 Y82.336 E107.35782
G1 X83.871 Y82.336 E107.48098
G1 X99.199 Y97.664 E110.08971
G1 X98.176 Y97.664 E110.21287
G1 X82.848 Y82.336 E112.82160
G1 X82.336 Y82.848 E112.90869
G1 X97.664 Y98.176 E115.51742
G1 X97.664 Y99.199 E115.64058
G1 X82.336 Y83.871 E118.24931
G1 X82.336 Y84.895 E118.37247
G1 X97.664 Y100.222 E120.98120
G1 X97.664 Y101.246 E121.10436
G1 X82.336 Y85.918 E123.71309
G1 X82.336 Y86.941 E123.83625
G1 X97.664 Y102.269 E126.44498
G1 X97.664 Y103.293 E126.56814
G1 X82.336 Y87.965 E129.17687
G1 X82.336 Y88.988 E129.30003
G1 X97.664 Y104.316 E131.90876
G1 X97.664 Y105.340 E132.03192
G1 X82.336 Y90.012 E134.64065
G1 X82.336 Y91.035 E134.76381
G1 X97.664 Y106.363 E137.37254
G1 X97.664 Y107.386 E137.49570
G1 X82.336 Y92.059 E140.10443
G1 X82.336 Y93.082 E140.22759
G1 X96.918 Y107.664 E142.70938
G1 X95.895 Y107.664 E142.83254
G1 X82.336 Y94.105 E145.14015
G1 X82.336 Y95.129 E145.26331
G1 X94.871 Y107.664 E147.39673
G1 X93.848 Y107.664 E147.51990
G1 X82.336 Y96.152 E149.47914
G1 X82.336 Y97.176 E149.60230
G1 X92.824 Y107.664 E151.38737
G1 X91.801 Y107.664 E151.51053
G1 X82.336 Y98.199 E153.12141
G1 X82.336 Y99.222 E153.24458
G1 X90.778 Y107.664 E154.68128
G1 X89.754 Y107.664 E154.80444
G1 X82.336 Y100.246 E156.06696
G1 X82.336 Y101.269 E156.19013
G1 X88.731 Y107.664 E157.27847
G1 X87.707 Y107.664 E157.40163
G1 X82.336 Y102.293 E158.31579
G1 X82.336 Y103.316 E158.43896
G1 X87.664 Y108.644 E159.34573
G1 X87.664 Y109.667 E159.46890
G1 X82.336 Y104.340 E160.37567
G1 X82.336 Y105.363 E160.49884
G1 X87.664 Y110.691 E161.40562
G1 X87.664 Y111.714 E161.52878
G1 X82.336 Y106.386 E162.43556
G1 X82.336 Y107.410 E162.55872
G1 X87.664 Y112.738 E163.46550
G1 X87.664 Y113.761 E163.58866
G1 X82.336 Y108.433 E164.49544
G1 X82.336 Y109.457 E164.61860
G1 X87.664 Y114.784 E165.52538
G1 X87.664 Y115.808 E165.64854
G1 X82.336 Y110.480 E166.55532
G1 X82.336 Y111.503 E166.67848
G1 X87.664 Y116.831 E167.58526
G1 X87.473 Y117.664 E167.68806
G1 X82.336 Y112.527 E168.56237
G1 X82.336 Y113.550 E168.68553
G1 X86.450 Y117.664 E169.38566
G1 X85.426 Y117.664 E169.50882
G1 X82.336 Y114.574 E170.03477
G1 X82.336 Y115.597 E170.15793
G1 X84.403 Y117.664 E170.50970
G1 X83.379 Y117.664 E170.63286
G1 X82.336 Y116.621 E170.81044
G1 X82.336 Y117.644 E170.93361
G1 X82.356 Y117.664 E170.93701
M106 S199
M104 S210 ; set temperature
M140 S90 ; set bed temperature
G1 F1800.000 E169.93701
G92 E0
G1 Z0.600 F7800.000
G1 X81.000 Y119.000 F7800.000
G1 E1.00000 F1800.000
G1 X81.000 Y81.000 E2.26389 F1800
G1 X119.000 Y81.000 E3.52777
G1 X119.000 Y89.000 E3.79385
G1 X109.000 Y89.000 E4.12645
G1 X109.000 Y99.000 E4.45905
G1 X99.000 Y99.000 E4.79166
G1 X99.000 Y109.000 E5.12426
G1 X89.000 Y109.000 E5.45686
G1 X89.000 Y119.000 E5.78946
G1 X81.060 Y119.000 E6.05354
G1 X80.600 Y119.400 F7800.000
G1 X80.600 Y80.600 E7.34404 F1800
G1 X119.400 Y80.600 E8.63453
G1 X119.400 Y89.400 E8.92722
G1 X109.400 Y89.400 E9.25982
G1 X109.400 Y99.400 E9.59242
G1 X99.400 Y99.400 E9.92502
G1 X99.400 Y109.400 E10.25763
G1 X89.400 Y109.400 E10.59023
G1 X89.400 Y119.400 E10.92283
G1 X80.660 Y119.400 E11.21352
G1 X80.200 Y119.800 F7800.000
G1 X80.200 Y80.200 E12.53062 F1260
G1 X119.800 Y80.200 E13.84772
G1 X119.800 Y89.800 E14.16702
G1 X109.800 Y89.800 E14.49962
G1 X109.800 Y99.800 E14.83222
G1 X99.800 Y99.800 E15.16483
G1 X99.800 Y109.800 E15.49743
G1 X89.800 Y109.800 E15.83003
G1 X89.800 Y119.800 E16.16263
G1 X80.260 Y119.800 E16.47993
G1 X80.400 Y119.454 F7800.000
G1 X88.669 Y118.649 F7800.000
G1 X88.649 Y118.669 E16.48142 F3600
G1 X87.756 Y118.669 E16.52827
G1 X88.669 Y117.756 E16.59602
G1 X88.669 Y116.863 E16.64287
G1 X86.863 Y118.669 E16.77688
G1 X85.971 Y118.669 E16.82374
G1 X88.669 Y115.971 E17.02401
G1 X88.669 Y115.078 E17.07086
G1 X85.078 Y118.669 E17.33740
G1 X84.185 Y118.669 E17.38425
G1 X88.669 Y114.185 E17.71705
G1 X88.669 Y113.292 E17.76391
G1 X83.292 Y118.669 E18.16297
G1 X82.400 Y118.669 E18.20982
G1 X88.669 Y112.400 E18.67514
G1 X88.669 Y111.507 E18.72200
G1 X81.507 Y118.669 E19.25358
G1 X81.331 Y117.952 E19.29233
G1 X88.669 Y110.614 E19.83696
G1 X88.669 Y109.722 E19.88381
G1 X81.331 Y117.059 E20.42844
G1 X81.331 Y116.166 E20.47530
G1 X98.669 Y98.829 E21.76220
G1 X98.829 Y98.669 F7800.000
G1 X108.669 Y88.829 E22.49258 F3600
G1 X108.669 Y89.722 E22.53943
G1 X99.722 Y98.669 E23.20354
G1 X100.614 Y98.669 E23.25040
G1 X108.669 Y90.614 E23.84824
G1 X108.669 Y91.507 E23.89510
G1 X101.507 Y98.669 E24.42668
G1 X102.400 Y98.669 E24.47354
G1 X108.669 Y92.400 E24.93886
G1 X108.669 Y93.292 E24.98571
G1 X103.292 Y98.669 E25.38477
G1 X104.185 Y98.669 E25.43163
G1 X108.669 Y94.185 E25.76443
G1 X108.669 Y95.078 E25.81128
G1 X105.078 Y98.669 E26.07781
G1 X105.971 Y98.669 E26.12467
G1 X108.669 Y95.971 E26.32494
G1 X108.669 Y96.863 E26.37180
G1 X106.863 Y98.669 E26.50581
G1 X107.756 Y98.669 E26.55266
G1 X108.669 Y97.756 E26.62041
G1 X108.669 Y98.649 E26.66726
G1 X108.649 Y98.669 E26.66875
G1 F1800.000 E25.66875
G92 E0
G1 X98.669 Y108.649 F7800.000
G1 E1.00000 F1800.000
G1 X98.649 Y108.669 E1.00148 F3600
G1 X97.756 Y108.669 E1.04834
G1 X98.669 Y107.756 E1.11609
G1 X98.669 Y106.863 E1.16294
G1 X96.863 Y108.669 E1.29695
G1 X95.971 Y108.669 E1.34381
G1 X98.669 Y105.971 E1.54408
G1 X98.669 Y105.078 E1.5900x87383
