; generated by Slic3r 1.0.1 on 2014-04-27 at 23:37:29

; layer_height = 0.2
; perimeters = 3
; top_solid_layers = 3
; bottom_solid_layers = 3
; fill_density = 0.2
; perimeter_speed = 30
; infill_speed = 60
; travel_speed = 130
; nozzle_diameter = 0.4
; filament_diameter = 1.75
; extrusion_multiplier = .995
; perimeters extrusion width = 0.40mm
; infill extrusion width = 0.67mm
; solid infill extrusion width = 0.67mm
; top infill extrusion width = 0.67mm
; first layer extrusion width = 0.80mm

G21 ; set units to millimeters
M107
M190 S95 ; wait for bed temperature to be reached
M104 S215 ; set temperature
G28 ; home all axes
G1 Z5 F5000 ; lift nozzle
M109 S215 ; wait for temperature to be reached
G90 ; use absolute coordinates
G92 E0
M82 ; use absolute distances for extrusion
G1 F1800.000 E-1.00000
G92 E0
G1 Z0.400 F7800.000
G1 X75.250 Y75.250 F7800.000
G1 E1.00000 F1800.000
G1 X76.270 Y74.420 E1.15540 F540.000
G1 X77.430 Y73.800 E1.31083
G1 X78.690 Y73.410 E1.46669
G1 X80.000 Y73.290 E1.62215
G1 X120.000 Y73.290 E6.34900
G1 X121.310 Y73.410 E6.50445
G1 X122.570 Y73.800 E6.66032
G1 X123.730 Y74.420 E6.81575
G1 X124.750 Y75.250 E6.97115
G1 X125.580 Y76.270 E7.12655
G1 X126.200 Y77.430 E7.28198
G1 X126.590 Y78.690 E7.43784
G1 X126.710 Y80.000 E7.59329
G1 X126.710 Y90.000 E8.77501
G1 X126.590 Y91.310 E8.93046
G1 X126.200 Y92.570 E9.08633
G1 X125.580 Y93.730 E9.24176
G1 X124.750 Y94.750 E9.39715
G1 X94.750 Y124.750 E14.41074
G1 X93.730 Y125.580 E14.56614
G1 X92.570 Y126.200 E14.72157
G1 X91.310 Y126.590 E14.87743
G1 X90.000 Y126.710 E15.03289
G1 X80.000 Y126.710 E16.21460
G1 X78.690 Y126.590 E16.37005
G1 X77.430 Y126.200 E16.52592
G1 X76.270 Y125.580 E16.68135
G1 X75.250 Y124.750 E16.83675
G1 X74.420 Y123.730 E16.99214
G1 X73.800 Y122.570 E17.14757
G1 X73.410 Y121.310 E17.30344
G1 X73.290 Y120.000 E17.45889
G1 X73.290 Y80.000 E22.18575
G1 X73.410 Y78.690 E22.34120
G1 X73.800 Y77.430 E22.49706
G1 X74.420 Y76.270 E22.65249
G1 X75.182 Y75.333 E22.79523
G1 F1800.000 E21.79523
G92 E0
G1 X81.828 Y81.828 F7800.000
G1 E1.00000 F1800.000
G1 X118.172 Y81.828 E5.29474 F540.000
G1 X118.172 Y88.172 E6.04435
G1 X108.172 Y88.172 E7.22606
G1 X108.172 Y98.172 E8.40777
G1 X98.172 Y98.172 E9.58949
G1 X98.172 Y108.172 E10.77120
G1 X88.172 Y108.172 E11.95291
G1 X88.172 Y118.172 E13.13463
G1 X81.828 Y118.172 E13.88423
G1 X81.828 Y81.935 E18.16632
G1 X81.114 Y81.114 F7800.000
G1 X118.886 Y81.114 E22.62985 F540.000
G1 X118.886 Y88.886 E23.54824
G1 X108.886 Y88.886 E24.72995
G1 X108.886 Y98.886 E25.91166
G1 X98.886 Y98.886 E27.09338
G1 X98.886 Y108.886 E28.27509
G1 X88.886 Y108.886 E29.45680
G1 X88.886 Y118.886 E30.63852
G1 X81.114 Y118.886 E31.55691
G1 X81.114 Y81.221 E36.00778
G1 X80.400 Y80.400 F7800.000
G1 X119.600 Y80.400 E40.64010 F378.000
G1 X119.600 Y89.600 E41.72727
G1 X109.600 Y89.600 E42.90899
G1 X109.600 Y99.600 E44.09070
G1 X99.600 Y99.600 E45.27241
G1 X99.600 Y109.600 E46.45413
G1 X89.600 Y109.600 E47.63584
G1 X89.600 Y119.600 E48.81755
G1 X80.400 Y119.600 E49.90473
G1 X80.400 Y80.507 E54.52439
G1 X81.018 Y80.757 F7800.000
G1 X117.664 Y82.356 F7800.000
G1 X117.644 Y82.336 E54.52777 F1080.000
G1 X116.621 Y82.336 E54.65032
G1 X117.664 Y83.379 E54.82701
G1 X117.664 Y84.403 E54.94956
G1 X115.597 Y82.336 E55.29956
G1 X114.574 Y82.336 E55.42211
G1 X117.664 Y85.426 E55.94542
G1 X117.664 Y86.450 E56.06797
G1 X113.550 Y82.336 E56.76459
G1 X112.527 Y82.336 E56.88713
G1 X117.664 Y87.473 E57.75706
G1 X116.831 Y87.664 E57.85935
G1 X111.503 Y82.336 E58.76159
G1 X110.480 Y82.336 E58.88414
G1 X115.808 Y87.664 E59.78638
G1 X114.784 Y87.664 E59.90893
G1 X109.457 Y82.336 E60.81117
G1 X108.433 Y82.336 E60.93372
G1 X113.761 Y87.664 E61.83597
G1 X112.738 Y87.664 E61.95851
G1 X107.410 Y82.336 E62.86076
G1 X106.386 Y82.336 E62.98331
G1 X111.714 Y87.664 E63.88555
G1 X110.691 Y87.664 E64.00810
G1 X105.363 Y82.336 E64.91034
G1 X104.340 Y82.336 E65.03289
G1 X109.667 Y87.664 E65.93513
G1 X108.644 Y87.664 E66.05768
G1 X103.316 Y82.336 E66.95992
G1 X102.293 Y82.336 E67.08247
G1 X107.664 Y87.707 E67.99206
G1 X107.664 Y88.731 E68.11460
G1 X101.269 Y82.336 E69.19750
G1 X100.246 Y82.336 E69.32005
G1 X107.664 Y89.754 E70.57625
G1 X107.664 Y90.778 E70.69880
G1 X99.222 Y82.336 E72.12831
G1 X98.199 Y82.336 E72.25086
G1 X107.664 Y91.801 E73.85368
G1 X107.664 Y92.824 E73.97623
G1 X97.176 Y82.336 E75.75237
G1 X96.152 Y82.336 E75.87491
G1 X107.664 Y93.848 E77.82436
G1 X107.664 Y94.871 E77.94690
G1 X95.129 Y82.336 E80.06966
G1 X94.105 Y82.336 E80.19220
G1 X107.664 Y95.895 E82.48826
G1 X107.664 Y96.918 E82.61081
G1 X93.082 Y82.336 E85.08018
G1 X92.059 Y82.336 E85.20273
G1 X107.386 Y97.664 E87.79841
G1 X106.363 Y97.664 E87.92096
G1 X91.035 Y82.336 E90.51664
G1 X90.012 Y82.336 E90.63919
G1 X105.340 Y97.664 E93.23488
G1 X104.316 Y97.664 E93.35742
G1 X88.988 Y82.336 E95.95311
G1 X87.965 Y82.336 E96.07565
G1 X103.293 Y97.664 E98.67134
G1 X102.269 Y97.664 E98.79389
G1 X86.941 Y82.336 E101.38957
G1 X85.918 Y82.336 E101.51212
G1 X101.246 Y97.664 E104.10780
G1 X100.222 Y97.664 E104.23035
G1 X84.895 Y82.336 E106.82603
G1 X83.871 Y82.336 E106.94858
G1 X99.199 Y97.664 E109.54426
G1 X98.176 Y97.664 E109.66681
G1 X82.848 Y82.336 E112.26249
G1 X82.336 Y82.848 E112.34915
G1 X97.664 Y98.176 E114.94483
G1 X97.664 Y99.199 E115.06738
G1 X82.336 Y83.871 E117.66306
G1 X82.336 Y84.895 E117.78561
G1 X97.664 Y100.222 E120.38129
G1 X97.664 Y101.246 E120.50384
G1 X82.336 Y85.918 E123.09952
G1 X82.336 Y86.941 E123.22207
G1 X97.664 Y102.269 E125.81775
G1 X97.664 Y103.293 E125.94030
G1 X82.336 Y87.965 E128.53598
G1 X82.336 Y88.988 E128.65853
G1 X97.664 Y104.316 E131.25421
G1 X97.664 Y105.340 E131.37676
G1 X82.336 Y90.012 E133.97245
G1 X82.336 Y91.035 E134.09499
G1 X97.664 Y106.363 E136.69068
G1 X97.664 Y107.386 E136.81322
G1 X82.336 Y92.059 E139.40891
G1 X82.336 Y93.082 E139.53146
G1 X96.918 Y107.664 E142.00083
G1 X95.895 Y107.664 E142.12338
G1 X82.336 Y94.105 E144.41944
G1 X82.336 Y95.129 E144.54199
G1 X94.871 Y107.664 E146.66475
G1 X93.848 Y107.664 E146.78730
G1 X82.336 Y96.152 E148.73674
G1 X82.336 Y97.176 E148.85929
G1 X92.824 Y107.664 E150.63543
G1 X91.801 Y107.664 E150.75798
G1 X82.336 Y98.199 E152.36080
G1 X82.336 Y99.222 E152.48335
G1 X90.778 Y107.664 E153.91287
G1 X89.754 Y107.664 E154.03542
G1 X82.336 Y100.246 E155.29163
G1 X82.336 Y101.269 E155.41418
G1 X88.731 Y107.664 E156.49708
G1 X87.707 Y107.664 E156.61962
G1 X82.336 Y102.293 E157.52921
G1 X82.336 Y103.316 E157.65176
G1 X87.664 Y108.644 E158.55400
G1 X87.664 Y109.667 E158.67655
G1 X82.336 Y104.340 E159.57880
G1 X82.336 Y105.363 E159.70134
G1 X87.664 Y110.691 E160.60359
G1 X87.664 Y111.714 E160.72614
G1 X82.336 Y106.386 E161.62838
G1 X82.336 Y107.410 E161.75093
G1 X87.664 Y112.738 E162.65317
G1 X87.664 Y113.761 E162.77572
G1 X82.336 Y108.433 E163.67796
G1 X82.336 Y109.457 E163.80051
G1 X87.664 Y114.784 E164.70275
G1 X87.664 Y115.808 E164.82530
G1 X82.336 Y110.480 E165.72754
G1 X82.336 Y111.503 E165.85009
G1 X87.664 Y116.831 E166.75234
G1 X87.473 Y117.664 E166.85462
G1 X82.336 Y112.527 E167.72456
G1 X82.336 Y113.550 E167.84710
G1 X86.450 Y117.664 E168.54373
G1 X85.426 Y117.664 E168.66628
G1 X82.336 Y114.574 E169.18959
G1 X82.336 Y115.597 E169.31214
G1 X84.403 Y117.664 E169.66215
G1 X83.379 Y117.664 E169.78470
G1 X82.336 Y116.621 E169.96139
G1 X82.336 Y117.644 E170.08394
G1 X82.356 Y117.664 E170.08733
M106 S199
M104 S210 ; set temperature
M140 S90 ; set bed temperature
G1 F1800.000 E169.08733
G92 E0
G1 Z0.600 F7800.000
G1 X81.000 Y119.000 F7800.000
G1 E1.00000 F1800.000
G1 X81.000 Y81.000 E2.25757 F1800
G1 X119.000 Y81.000 E3.51513
G1 X119.000 Y89.000 E3.77988
G1 X109.000 Y89.000 E4.11082
G1 X109.000 Y99.000 E4.44176
G1 X99.000 Y99.000 E4.77270
G1 X99.000 Y109.000 E5.10364
G1 X89.000 Y109.000 E5.43457
G1 X89.000 Y119.000 E5.76551
G1 X81.060 Y119.000 E6.02828
G1 X80.600 Y119.400 F7800.000
G1 X80.600 Y80.600 E7.31232 F1800
G1 X119.400 Y80.600 E8.59636
G1 X119.400 Y89.400 E8.88758
G1 X109.400 Y89.400 E9.21852
G1 X109.400 Y99.400 E9.54946
G1 X99.400 Y99.400 E9.88040
G1 X99.400 Y109.400 E10.21134
G1 X89.400 Y109.400 E10.54228
G1 X89.400 Y119.400 E10.87321
G1 X80.660 Y119.400 E11.16245
G1 X80.200 Y119.800 F7800.000
G1 X80.200 Y80.200 E12.47297 F1260
G1 X119.800 Y80.200 E13.78349
G1 X119.800 Y89.800 E14.10119
G1 X109.800 Y89.800 E14.43213
G1 X109.800 Y99.800 E14.76306
G1 X99.800 Y99.800 E15.09400
G1 X99.800 Y109.800 E15.42494
G1 X89.800 Y109.800 E15.75588
G1 X89.800 Y119.800 E16.08682
G1 X80.260 Y119.800 E16.40253
G1 X80.400 Y119.454 F7800.000
G1 X88.669 Y118.649 F7800.000
G1 X88.649 Y118.669 E16.40401 F3600
G1 X87.756 Y118.669 E16.45063
G1 X88.669 Y117.756 E16.51804
G1 X88.669 Y116.863 E16.56466
G1 X86.863 Y118.669 E16.69800
G1 X85.971 Y118.669 E16.74462
G1 X88.669 Y115.971 E16.94389
G1 X88.669 Y115.078 E16.99051
G1 X85.078 Y118.669 E17.25571
G1 X84.185 Y118.669 E17.30233
G1 X88.669 Y114.185 E17.63347
G1 X88.669 Y113.292 E17.68009
G1 X83.292 Y118.669 E18.07715
G1 X82.400 Y118.669 E18.12377
G1 X88.669 Y112.400 E18.58677
G1 X88.669 Y111.507 E18.63339
G1 X81.507 Y118.669 E19.16231
G1 X81.331 Y117.952 E19.20086
G1 X88.669 Y110.614 E19.74277
G1 X88.669 Y109.722 E19.78939
G1 X81.331 Y117.059 E20.33130
G1 X81.331 Y116.166 E20.37792
G1 X98.669 Y98.829 E21.65839
G1 X98.829 Y98.669 F7800.000
G1 X108.669 Y88.829 E22.38511 F3600
G1 X108.669 Y89.722 E22.43173
G1 X99.722 Y98.669 E23.09252
G1 X100.614 Y98.669 E23.13914
G1 X108.669 Y90.614 E23.73400
G1 X108.669 Y91.507 E23.78062
G1 X101.507 Y98.669 E24.30955
G1 X102.400 Y98.669 E24.35617
G1 X108.669 Y92.400 E24.81916
G1 X108.669 Y93.292 E24.86578
G1 X103.292 Y98.669 E25.26285
G1 X104.185 Y98.669 E25.30947
G1 X108.669 Y94.185 E25.64060
G1 X108.669 Y95.078 E25.68722
G1 X105.078 Y98.669 E25.95243
G1 X105.971 Y98.669 E25.99905
G1 X108.669 Y95.971 E26.19832
G1 X108.669 Y96.863 E26.24494
G1 X106.863 Y98.669 E26.37828
G1 X107.756 Y98.669 E26.42490
G1 X108.669 Y97.756 E26.49231
G1 X108.669 Y98.649 E26.53893
G1 X108.649 Y98.669 E26.54040
G1 F1800.000 E25.54040
G92 E0
G1 X98.669 Y108.649 F7800.000
G1 E1.00000 F1800.000
G1 X98.649 Y108.669 E1.00148 F3600
G1 X97.756 Y108.669 E1.04810
G1 X98.669 Y107.756 E1.11551
G1 X98.669 Y106.863 E1.16213
G1 X96.863 Y108.669 E1.29547
G1 X95.971 Y108.669 E1.34209
G1 X98.669 Y105.971 E1.54136
G1 X98.669 Y105.078 E1.58798
G1 X95.078 Y108.669 E1.85318
G1 X94.185 Y108.669 E1.89980
G1 X98.669 Y104.185 E2.23093
G1 X98.669 Y103.292 E2.27755
G1 X93.292 Y108.669 E2.67462
G1 X92.400 Y108.669 E2.72124
G1 X98.669 Y102.400 E3.18423
G1 X98.669 Y101.507 E3.23085
G1 X91.507 Y108.669 E3.75978
G1 X90.614 Y108.669 E3.80640
G1 X98.669 Y100.614 E4.40126
G1 X98.669 Y99.722 E4.44788
G1 X89.722 Y108.669 E5.10867
G1 X81.331 Y81.351 F7800.000
G1 X81.351 Y81.331 E5.11014 F3600
G1 X82.244 Y81.331 E5.15676
G1 X81.331 Y82.244 E5.22417
G1 X81.331 Y83.137 E5.27079
G1 X83.137 Y81.331 E5.40413
G1 X84.029 Y81.331 E5.45075
G1 X81.331 Y84.029 E5.65002
G1 X81.331 Y84.922 E5.69664
G1 X84.922 Y81.331 E5.96184
G1 X85.815 Y81.331 E6.00846
G1 X81.331 Y85.815 E6.33959
G1 X81.331 Y86.707 E6.38621
G1 X86.707 Y81.331 E6.78327
G1 X87.600 Y81.331 E6.82989
G1 X81.331 Y87.600 E7.29288
G1 X81.331 Y88.493 E7.33950
G1 X88.493 Y81.331 E7.86843
G1 X89.386 Y81.331 E7.91505
G1 X81.331 Y89.386 E8.50990
G1 X81.331 Y90.278 E8.55652
G1 X90.278 Y81.331 E9.21731
G1 X91.171 Y81.331 E9.26393
G1 X81.331 Y91.171 E9.99065
G1 X81.331 Y92.064 E10.03727
G1 X92.064 Y81.331 E10.82992
G1 X92.956 Y81.331 E10.87654
G1 X81.331 Y92.956 E11.73512
G1 X81.331 Y93.849 E11.78174
G1 X93.849 Y81.331 E12.70625
G1 X94.742 Y81.331 E12.75287
G1 X81.331 Y94.742 E13.74331
G1 X81.331 Y95.634 E13.78993
G1 X95.634 Y81.331 E14.84630
G1 X96.527 Y81.331 E14.89292
G1 X81.331 Y96.527 E16.01523
G1 X81.331 Y97.420 E16.06185
G1 X97.420 Y81.331 E17.25009
G1 X98.312 Y81.331 E17.29671
G1 X81.331 Y98.312 E18.55087
G1 X81.331 Y99.205 E18.59749
G1 X99.205 Y81.331 E19.91759
G1 X100.098 Y81.331 E19.96421
G1 X81.331 Y100.098 E21.35024
G1 X81.331 Y100.991 E21.39686
G1 X100.991 Y81.331 E22.84882
G1 X101.883 Y81.331 E22.89544
G1 X81.331 Y101.883 E24.41334
G1 X81.331 Y102.776 E24.45996
G1 X102.776 Y81.331 E26.04378
G1 X103.669 Y81.331 E26.09040
G1 X81.331 Y103.669 E27.74016
G1 X81.331 Y104.561 E27.78678
G1 X104.561 Y81.331 E29.50246
G1 X105.454 Y81.331 E29.54908
G1 X81.331 Y105.454 E31.33070
G1 X81.331 Y106.347 E31.37732
G1 X106.347 Y81.331 E33.22487
G1 X107.239 Y81.331 E33.27149
G1 X81.331 Y107.239 E35.18497
G1 X81.331 Y108.132 E35.23159
G1 X108.132 Y81.331 E37.21100
G1 X109.025 Y81.331 E37.25762
G1 X81.331 Y109.025 E39.30296
G1 X81.331 Y109.917 E39.34958
G1 X109.917 Y81.331 E41.46085
G1 X110.810 Y81.331 E41.50747
G1 X81.331 Y110.810 E43.68468
G1 X81.331 Y111.703 E43.73130
G1 X111.703 Y81.331 E45.97443
G1 X112.596 Y81.331 E46.02105
G1 X81.331 Y112.596 E48.33012
G1 X81.331 Y113.488 E48.37674
G1 X113.488 Y81.331 E50.75174
G1 X114.381 Y81.331 E50.79836
G1 X81.331 Y114.381 E53.23929
G1 X81.331 Y115.274 E53.28591
G1 X115.274 Y81.331 E55.79277
G1 X116.166 Y81.331 E55.83939
G1 X108.829 Y88.669 E56.38130
G1 X109.722 Y88.669 E56.42792
G1 X117.059 Y81.331 E56.96982
G1 X117.952 Y81.331 E57.01644
G1 X110.614 Y88.669 E57.55835
G1 X111.507 Y88.669 E57.60497
G1 X118.669 Y81.507 E58.13390
G1 X118.669 Y82.400 E58.18052
G1 X112.400 Y88.669 E58.64352
G1 X113.292 Y88.669 E58.69014
G1 X118.669 Y83.292 E59.08720
G1 X118.669 Y84.185 E59.13382
G1 X114.185 Y88.669 E59.46495
G1 X115.078 Y88.669 E59.51157
G1 X118.669 Y85.078 E59.77678
G1 X118.669 Y85.971 E59.82340
G1 X115.971 Y88.669 E60.02267
G1 X116.863 Y88.669 E60.06929
G1 X118.669 Y86.863 E60.20263
G1 X118.669 Y87.756 E60.24925
G1 X117.756 Y88.669 E60.31666
G1 X118.649 Y88.669 E60.36328
G1 X118.669 Y88.649 E60.36475
M106 S200
G1 F1800.000 E59.36475
G92 E0
G1 Z0.800 F7800.000
G1 X119.000 Y89.000 F7800.000
G1 E1.00000 F1800.000
G1 X109.000 Y89.000 E1.33094 F1800
G1 X109.000 Y99.000 E1.66188
G1 X99.000 Y99.000 E1.99282
G1 X99.000 Y109.000 E2.32375
G1 X89.000 Y109.000 E2.65469
G1 X89.000 Y119.000 E2.98563
G1 X81.000 Y119.000 E3.25038
G1 X81.000 Y81.000 E4.50795
G1 X119.000 Y81.000 E5.76551
G1 X119.000 Y88.940 E6.02828
G1 X119.400 Y89.400 F7800.000
G1 X109.400 Y89.400 E6.35922 F1800
G1 X109.400 Y99.400 E6.69015
G1 X99.400 Y99.400 E7.02109
G1 X99.400 Y109.400 E7.35203
G1 X89.400 Y109.400 E7.68297
G1 X89.400 Y119.400 E8.01391
G1 X80.600 Y119.400 E8.30513
G1 X80.600 Y80.600 E9.58917
G1 X119.400 Y80.600 E10.87321
G1 X119.400 Y89.340 E11.16245
G1 X119.800 Y89.800 F7800.000
G1 X109.800 Y89.800 E11.49339 F1260
G1 X109.800 Y99.800 E11.82433
G1 X99.800 Y99.800 E12.15527
G1 X99.800 Y109.800 E12.48621
G1 X89.800 Y109.800 E12.81715
G1 X89.800 Y119.800 E13.14808
G1 X80.200 Y119.800 E13.46579
G1 X80.200 Y80.200 E14.77630
G1 X119.800 Y80.200 E16.08682
G1 X119.800 Y89.740 E16.40253
G1 X119.454 Y89.600 F7800.000
G1 X118.669 Y81.351 F7800.000
G1 X118.649 Y81.331 E16.40402 F3600
G1 X117.749 Y81.331 E16.45132
G1 X118.669 Y82.251 E16.51970
G1 X118.669 Y83.150 E16.56700
G1 X116.850 Y81.331 E16.70228
G1 X115.951 Y81.331 E16.74959
G1 X118.669 Y84.049 E16.95176
G1 X118.669 Y84.948 E16.99907
G1 X115.052 Y81.331 E17.26814
G1 X114.153 Y81.331 E17.31545
G1 X118.669 Y85.847 E17.65142
G1 X118.669 Y86.747 E17.69872
G1 X113.253 Y81.331 E18.10159
G1 X112.354 Y81.331 E18.14890
G1 X118.669 Y87.646 E18.61866
G1 X118.669 Y88.545 E18.66597
G1 X111.455 Y81.331 E19.20263
G1 X110.556 Y81.331 E19.24994
G1 X117.893 Y88.669 E19.79580
G1 X116.994 Y88.669 E19.84311
G1 X109.657 Y81.331 E20.38897
G1 X108.757 Y81.331 E20.43628
G1 X116.095 Y88.669 E20.98214
G1 X115.195 Y88.669 E21.02945
G1 X107.858 Y81.331 E21.57531
G1 X106.959 Y81.331 E21.62262
G1 X114.296 Y88.669 E22.16848
G1 X113.397 Y88.669 E22.21579
G1 X106.060 Y81.331 E22.76165
G1 X105.161 Y81.331 E22.80896
G1 X112.498 Y88.669 E23.35482
G1 X111.599 Y88.669 E23.40213
G1 X104.261 Y81.331 E23.94799
G1 X103.362 Y81.331 E23.99529
G1 X110.699 Y88.669 E24.54116
G1 X109.800 Y88.669 E24.58846
G1 X102.463 Y81.331 E25.13433
G1 X101.564 Y81.331 E25.18163
G1 X108.901 Y88.669 E25.72750
G1 X108.669 Y89.336 E25.76465
G1 X100.664 Y81.331 E26.36013
